src/categories-icons-sprite/categories/svg-cat-child-shoes.svg

<svg width="35" height="22" viewBox="0 0 35 22" fill="none" xmlns="http://www.w3.org/2000/svg">
<path class="p-FF648D" d="M30.5977 12.9144C25.8737 11.8647 21.4387 9.76505 18.3794 7.06639C17.7455 6.50712 17.0862 5.82943 16.44 5.10745L13.8533 1.94554C13.5948 1.60536 13.3521 1.27975 13.1305 0.977872C12.3489 -0.0870715 10.853 -0.318266 9.7878 0.462887L2.8686 5.53699C1.5579 6.49814 0.784589 8.02707 0.787116 9.65241L0.797954 16.7783L8.14085 19.9549H23.0444L32.9997 16.7782C32.9997 16.7782 34.3358 13.745 30.5977 12.9144Z" fill="#65B3E7"/>
<path class="p-FD387E" d="M30.5984 12.9143C25.8743 11.8645 21.4394 9.76491 18.38 7.06625C17.9355 6.67414 17.4786 6.22299 17.0225 5.73999V19.9548H23.0449L33.0003 16.7781C33.0003 16.7781 34.3364 13.7449 30.5984 12.9143Z" fill="#58ADE5"/>
<path class="p-EBECEC" d="M22.4469 9.88123C21.7858 9.51798 21.1511 9.13352 20.5487 8.72925L18.9186 11.3306C18.593 11.8501 18.7503 12.5352 19.2698 12.8608C19.7893 13.1863 20.4744 13.0291 20.8 12.5095L22.4469 9.88123Z" fill="#4D98CB"/>
<path class="p-EBECEC" d="M16.4248 11.1326C16.9469 11.454 17.6307 11.2913 17.9521 10.7693L19.6151 8.06813C19.1826 7.74451 18.7699 7.41032 18.38 7.06635C18.2206 6.92565 18.0595 6.77751 17.8975 6.62305L16.0615 9.6053C15.7401 10.1274 15.9027 10.8112 16.4248 11.1326Z" fill="#4D98CB"/>
<path class="p-EBECEC" d="M25.5817 11.3614C24.8803 11.0791 24.1964 10.7741 23.5349 10.448L21.9142 13.0493C21.59 13.5697 21.749 14.2544 22.2694 14.5786C22.7898 14.9028 23.4744 14.7437 23.7986 14.2234L25.5817 11.3614Z" fill="#4D98CB"/>
<path class="p-EBECEC" d="M11.7729 18.3809L4.27911 14.2702C3.25373 13.6018 2.6416 12.4719 2.6416 11.2479C2.6416 9.77958 4.4144 8.47047 5.77185 7.91154L9.85927 6.20142L10.7162 8.24958L6.61876 9.96403C6.09573 10.1786 4.86185 10.6826 4.86185 11.2479C4.86185 11.7154 5.09411 12.1473 5.48356 12.405L12.947 16.4966L11.7729 18.3809Z" fill="#B9DFFC"/>
<path class="p-C7EAF0" d="M34.0441 18.5312C34.0441 19.3604 33.5268 20.1013 32.7483 20.3871C29.8408 21.4541 26.7677 22.0002 23.6705 22.0002H3.13286C1.40259 22.0002 0 20.5974 0 18.8672C0 17.137 1.40259 15.7344 3.13286 15.7344H9.18068C11.2342 15.7344 13.2811 15.9641 15.2836 16.4192L16.9195 16.791C19.9249 17.474 23.0245 17.6414 26.086 17.2858L30.5595 16.7663C30.9518 16.7207 31.3407 16.6514 31.7298 16.5828C32.9097 16.3742 34.0441 17.2801 34.0441 18.5312Z" fill="#FD387E"/>
<path class="p-C7EAF0" d="M34.0441 18.5312C34.0441 19.3604 33.5268 20.1013 32.7483 20.3871C29.8407 21.4541 26.7677 22.0002 23.6705 22.0002H3.13286C1.40259 22.0002 0 20.5974 0 18.8672C0 17.137 1.40259 15.7344 3.13286 15.7344H9.18068C11.2342 15.7344 13.2811 15.9641 15.2836 16.4192L16.9195 16.791C19.9249 17.474 23.0245 17.6414 26.086 17.2858L30.5595 16.7663C30.9518 16.7207 31.3407 16.6514 31.7298 16.5828C32.9097 16.3742 34.0441 17.2801 34.0441 18.5312Z" fill="#B9DFFC"/>
<path class="p-BB2A5C" d="M9.89232 9.58653L15.4491 5.78551C16.3768 5.15092 16.6145 3.8844 15.9799 2.95667C15.3453 2.02895 14.0788 1.79132 13.151 2.42591L7.59425 6.22693L9.89232 9.58653Z" fill="#4D98CB"/>
<path class="p-88DEE0" d="M32.626 16.5821C32.237 16.6508 30.9522 16.7202 30.5598 16.7657L26.0863 17.2852C23.0596 17.6368 19.9958 17.4763 17.0225 16.8126V21.9997H23.6709C26.7681 21.9997 29.8411 21.4536 32.7487 20.3866C33.5272 20.1009 34.0445 19.3599 34.0445 18.5307C34.0445 17.2797 33.806 16.3737 32.626 16.5821Z" fill="#A1D1FD"/>
</svg>

<svg width="35" height="22" fill="none" xmlns="http://www.w3.org/2000/svg"><path class="p-FF648D" d="M30.598 12.914c-4.724-1.05-9.16-3.149-12.219-5.848a23.948 23.948 0 01-1.939-1.959l-2.587-3.161c-.258-.34-.5-.666-.723-.968A2.392 2.392 0 009.788.463l-6.92 5.074a5.094 5.094 0 00-2.08 4.115l.01 7.126 7.343 3.177h14.903L33 16.778s1.336-3.033-2.402-3.864z" fill="#65B3E7"/><path class="p-FD387E" d="M30.598 12.914c-4.724-1.05-9.159-3.15-12.218-5.848a21.091 21.091 0 01-1.357-1.326v14.215h6.022L33 16.778s1.336-3.033-2.402-3.864z" fill="#58ADE5"/><path class="p-EBECEC" d="M22.447 9.881a25.092 25.092 0 01-1.898-1.152l-1.63 2.602a1.11 1.11 0 101.881 1.178l1.647-2.628zM16.425 11.133a1.11 1.11 0 001.527-.364l1.663-2.7a19.777 19.777 0 01-1.235-1.003c-.16-.14-.32-.288-.482-.443L16.06 9.605a1.11 1.11 0 00.364 1.528zM25.582 11.361a29.775 29.775 0 01-2.047-.913l-1.62 2.601a1.11 1.11 0 001.884 1.174l1.783-2.862z" fill="#4D98CB"/><path class="p-EBECEC" d="M11.773 18.38l-7.494-4.11a3.596 3.596 0 01-1.637-3.022c0-1.468 1.772-2.778 3.13-3.336l4.087-1.71.857 2.048L6.62 9.964c-.523.215-1.757.719-1.757 1.284 0 .467.232.9.622 1.157l7.463 4.092-1.174 1.884z" fill="#B9DFFC"/><path class="p-C7EAF0" d="M34.044 18.531c0 .83-.517 1.57-1.296 1.856A26.35 26.35 0 0123.671 22H3.133a3.133 3.133 0 010-6.266H9.18c2.053 0 4.1.23 6.103.685l1.635.372c3.006.683 6.105.85 9.167.495l4.474-.52c.392-.045.78-.115 1.17-.183a1.977 1.977 0 012.314 1.948z" fill="#FD387E"/><path class="p-C7EAF0" d="M34.044 18.531c0 .83-.517 1.57-1.296 1.856A26.35 26.35 0 0123.671 22H3.133a3.133 3.133 0 010-6.266H9.18c2.053 0 4.1.23 6.103.685l1.635.372c3.006.683 6.105.85 9.167.495l4.474-.52c.392-.045.78-.115 1.17-.183a1.977 1.977 0 012.314 1.948z" fill="#B9DFFC"/><path class="p-BB2A5C" d="M9.892 9.587l5.557-3.801a2.035 2.035 0 10-2.298-3.36l-5.557 3.8 2.298 3.36z" fill="#4D98CB"/><path class="p-88DEE0" d="M32.626 16.582c-.389.069-1.674.138-2.066.184l-4.474.52c-3.026.35-6.09.19-9.063-.473V22h6.648c3.097 0 6.17-.546 9.078-1.613a1.977 1.977 0 001.295-1.856c0-1.251-.238-2.157-1.418-1.949z" fill="#A1D1FD"/></svg>
